X: 804
T: Old Man Dillon.
C:F. O'Neill.
B:O'Neill's Music of Ireland
N:O'Neill's - 804
Z:Transcribed by Stephen Foy (shf@access.digex.net)
Z:abc 1.6
Z:Fermata above first repeat sign.
R:Jig
M:6/8
K:A
(A/G/)|E>AA ABd|edB {d}c2 A|BGG DGG|Bdc BAG|E>AA ABd|e^de a2 e|
|edc Bcd|ecA A2:|g|=gef g2 a|=gef g2 d|B>GG D>GG|Bdc BAG|
|[1 =gef g2 a|=gef g2 d|e>dc Bcd|e>cA A2:|[2 E>AA ABd|e^de a2 e|\
edc Bcd|ecA A2|]


